src/assets/icons/weeks,fancy,45.svg

<svg width="48" height="48" viewBox="0 0 48 48" fill="none" xmlns="http://www.w3.org/2000/svg">
<rect opacity="0.2" x="4" y="6" width="40" height="40" rx="4" fill="black"/>
<path d="M6.83061 37.4205H16.6048V41H20.7212V37.4205H23.2468V33.9702H20.7212V20.6364H15.332L6.83061 34.0298V37.4205ZM16.6843 33.9702H11.1658V33.8111L16.5252 25.3295H16.6843V33.9702ZM33.5529 41.2784C38.087 41.2784 41.1694 38.3253 41.1594 34.2088C41.1694 30.3111 38.445 27.5071 34.7759 27.5071C32.9862 27.5071 31.445 28.2528 30.729 29.2571H30.6097L31.1367 24.1562H40.0359V20.6364H27.587L26.6225 31.375L30.4506 32.0611C31.0771 31.2159 32.2901 30.6889 33.4933 30.6889C35.5415 30.6989 37.0131 32.1804 37.0131 34.3182C37.0131 36.4361 35.5714 37.8977 33.5529 37.8977C31.8427 37.8977 30.4606 36.8239 30.3612 35.2429H26.185C26.2646 38.7628 29.337 41.2784 33.5529 41.2784Z" fill="black"/>
<g opacity="0.4">
<path d="M10 4C10 2.89543 10.8954 2 12 2C13.1046 2 14 2.89543 14 4V8C14 9.10457 13.1046 10 12 10C10.8954 10 10 9.10457 10 8V4Z" fill="black"/>
<path d="M34 4C34 2.89543 34.8954 2 36 2C37.1046 2 38 2.89543 38 4V8C38 9.10457 37.1046 10 36 10C34.8954 10 34 9.10457 34 8V4Z" fill="black"/>
</g>
<path fill-rule="evenodd" clip-rule="evenodd" d="M10 6.00869C7.52043 6.04456 6.11466 6.22849 5.17157 7.17157C4 8.34315 4 10.2288 4 14V16H44V14C44 10.2288 44 8.34315 42.8284 7.17157C41.8853 6.22849 40.4796 6.04456 38 6.00869V8C38 9.10457 37.1046 10 36 10C34.8954 10 34 9.10457 34 8V6H14V8C14 9.10457 13.1046 10 12 10C10.8954 10 10 9.10457 10 8V6.00869Z" fill="black"/>
</svg>

<svg xmlns="http://www.w3.org/2000/svg" width="48" height="48" fill="none" viewBox="0 0 48 48">
  <rect width="40" height="40" x="4" y="6" fill="#000" opacity=".2" rx="4"/>
  <path fill="#000" d="M6.83 37.42h9.775V41h4.116v-3.58h2.526v-3.45H20.72V20.636h-5.389L6.831 34.03v3.39zm9.854-3.45h-5.518v-.159l5.36-8.482h.158v8.641zm16.869 7.308c4.534 0 7.616-2.953 7.606-7.07.01-3.897-2.714-6.7-6.383-6.7-1.79 0-3.331.745-4.047 1.75h-.12l.528-5.102h8.899v-3.52H27.587l-.965 10.739 3.829.686c.626-.845 1.84-1.372 3.042-1.372 2.048.01 3.52 1.491 3.52 3.63 0 2.117-1.442 3.579-3.46 3.579-1.71 0-3.092-1.074-3.192-2.655h-4.176c.08 3.52 3.152 6.035 7.368 6.035z"/>
  <g opacity=".4">
    <path fill="#000" d="M10 4a2 2 0 114 0v4a2 2 0 11-4 0V4zM34 4a2 2 0 114 0v4a2 2 0 11-4 0V4z"/>
  </g>
  <path fill="#000" fill-rule="evenodd" d="M10 6.009c-2.48.036-3.885.22-4.828 1.163C4 8.343 4 10.229 4 14v2h40v-2c0-3.771 0-5.657-1.172-6.828-.943-.944-2.348-1.127-4.828-1.163V8a2 2 0 11-4 0V6H14v2a2 2 0 11-4 0V6.009z" clip-rule="evenodd"/>
</svg>
